src/animals-nature/animal-marine/1F41A.svg

<svg id="emoji" viewBox="0 0 72 72" xmlns="http://www.w3.org/2000/svg">
  <g id="grid">
    <path fill="#b3b3b3" d="M68,4V68H4V4H68m4-4H0V72H72V0Z"/>
    <path fill="none" stroke="#00a5ff" stroke-miterlimit="10" stroke-width="0.1" d="M12.923,10.9583H59.0769A1.9231,1.9231,0,0,1,61,12.8814V59.0352a1.9231,1.9231,0,0,1-1.9231,1.9231H12.9231A1.9231,1.9231,0,0,1,11,59.0352V12.8813A1.923,1.923,0,0,1,12.923,10.9583Z"/>
    <rect x="16" y="4" rx="2.2537" width="40" height="64" fill="none" stroke="#00a5ff" stroke-miterlimit="10" stroke-width="0.1"/>
    <rect x="16" y="4" rx="2.2537" width="40" height="64" transform="translate(72) rotate(90)" fill="none" stroke="#00a5ff" stroke-miterlimit="10" stroke-width="0.1"/>
    <circle cx="36" cy="36" r="29" fill="none" stroke="#00a5ff" stroke-miterlimit="10" stroke-width="0.1"/>
  </g>
  <g id="color">
    <path fill="#FFA7C0" stroke="none" d="M30,31c0,0-2,23,7,26s14-34,6-34c-6.2075,0-7-1-11.7099-0.3422C29.9197,22.8491,27.9837,22.7602,26,24 c-8,5,5,29,8,31"/>
    <path fill="#E67A94" stroke="none" d="M42,22c0,0,1-3-2-3s-7,0-7,0s-2.1402-0.4205-1,3"/>
    <path fill="#FFA7C0" stroke="none" d="M34,18c3.2-5.3333,5.1333,0.3333,5,0"/>
  </g>
  <g id="hair"/>
  <g id="skin"/>
  <g id="skin-shadow"/>
  <g id="line">
    <path fill="none" stroke="#000000" stroke-linecap="round" stroke-linejoin="round" stroke-miterlimit="10" stroke-width="2" d="M30,31c0,0-2,23,7,26s14-34,6-34c-6.2075,0-7-1-11.7099-0.3422C29.9197,22.8491,27.9837,22.7602,26,24c-8,5,5,29,8,31"/>
    <path fill="none" stroke="#000000" stroke-linecap="round" stroke-linejoin="round" stroke-miterlimit="10" stroke-width="2" d="M42,22c0,0,1-3-2-3s-7,0-7,0s-2.1402-0.4205-1,3"/>
    <path fill="none" stroke="#000000" stroke-linecap="round" stroke-linejoin="round" stroke-miterlimit="10" stroke-width="2" d="M34,18c3.2-5.3333,5.1333,0.3333,5,0"/>
  </g>
</svg>

<svg viewBox="0 0 72 72" xmlns="http://www.w3.org/2000/svg"><path fill="#b3b3b3" d="M68 4v64H4V4h64m4-4H0v72h72V0z"/><path fill="none" stroke="#00a5ff" stroke-miterlimit="10" stroke-width=".1" d="M12.923 10.958h46.154A1.923 1.923 0 0161 12.881v46.154a1.923 1.923 0 01-1.923 1.923H12.923A1.923 1.923 0 0111 59.035V12.881a1.923 1.923 0 011.923-1.923z"/><rect x="16" y="4" rx="2.254" width="40" height="64" fill="none" stroke="#00a5ff" stroke-miterlimit="10" stroke-width=".1"/><rect x="16" y="4" rx="2.254" width="40" height="64" transform="rotate(90 36 36)" fill="none" stroke="#00a5ff" stroke-miterlimit="10" stroke-width=".1"/><circle cx="36" cy="36" r="29" fill="none" stroke="#00a5ff" stroke-miterlimit="10" stroke-width=".1"/><path d="M30 31s-2 23 7 26 14-34 6-34c-6.207 0-7-1-11.71-.342-1.37.191-3.306.102-5.29 1.342-8 5 5 29 8 31m8-33s1-3-2-3h-7s-2.14-.42-1 3m2-4c3.2-5.333 5.133.333 5 0" stroke-linecap="round" stroke-miterlimit="10" stroke-width="6" stroke="#fff" fill="none" stroke-linejoin="round"/><path fill="#FFA7C0" d="M30 31s-2 23 7 26 14-34 6-34c-6.207 0-7-1-11.71-.342-1.37.191-3.306.102-5.29 1.342-8 5 5 29 8 31"/><path fill="#E67A94" d="M42 22s1-3-2-3h-7s-2.14-.42-1 3"/><path fill="#FFA7C0" d="M34 18c3.2-5.333 5.133.333 5 0"/><path d="M30 31s-2 23 7 26 14-34 6-34c-6.207 0-7-1-11.71-.342-1.37.191-3.306.102-5.29 1.342-8 5 5 29 8 31m8-33s1-3-2-3h-7s-2.14-.42-1 3m2-4c3.2-5.333 5.133.333 5 0" fill="none" stroke="#000" stroke-linecap="round" stroke-linejoin="round" stroke-miterlimit="10" stroke-width="2"/></svg>
